X: 10572
T: WILLIE WAS A WANTON WAG
Q: "Brisk"
%R: reel, march
B: "Edinburgh Repository of Music" v.1 p.57 #2
F: http://digital.nls.uk/special-collections-of-printed-music/pageturner.cfm?id=87776133
Z: 2015 John Chambers <jc:trillian.mit.edu>
M: C
L: 1/8
K: D
A |\
FAAB/c/ d>e d>A | F>AAf e>dB2 |\
FAAB/c/ d/c/d/e/ dA | FA Af e>d d :|
|: g |\
faef d>efd | faef e>dB2 |\
faef d>e f/e/f/g/ | aAAf e>f d :|

%%sep 2 1 500
%%sep 1 1 500

